X: 123201
P: Country Dance.
M: C
L: 1/8
K: G
(uGE) |\
dcBA GFGA | B2G2G2 |]
ud2 |\
g2g2 gbag | f2f2 fagf |\
e2ef (gf)ed | B2e2 e2(ge) |\
dBGB d2d2 | edef g2(fe) |\
dcBA GFGA | B2G2G2 |]


